app/static/assets/svg/address_card.svg

<path d="M86.94 12.5H13.06A10.7 10.7 0 0 0 2.5 23.21v53.58A10.7 10.7 0 0 0 13.06 87.5h73.88A10.7 10.7 0 0 0 97.5 76.79V23.21A10.7 10.7 0 0 0 86.94 12.5zm5.28 64.29a5.25 5.25 0 0 1-5.28 5.35H13.06a5.25 5.25 0 0 1-5.28-5.35V23.21a5.25 5.25 0 0 1 5.28-5.35h73.88a5.25 5.25 0 0 1 5.28 5.35v53.58zM80.35 55.36H61.88c-.66 0-1.32.67-1.32 1.34v2.68c0 .66.66 1.33 1.32 1.33h18.47c.66 0 1.32-.67 1.32-1.33V56.7c0-.67-.66-1.34-1.32-1.34zm0-10.72H61.88c-.66 0-1.32.67-1.32 1.34v2.68c0 .67.66 1.34 1.32 1.34h18.47c.66 0 1.32-.67 1.32-1.34v-2.68c0-.67-.66-1.34-1.32-1.34zm0-10.71H61.88c-.66 0-1.32.67-1.32 1.34v2.68c0 .67.66 1.34 1.32 1.34h18.47c.66 0 1.32-.67 1.32-1.34v-2.68c0-.67-.66-1.34-1.32-1.34zM36.81 55.36c7.28 0 13.19-6 13.19-13.4a13.3 13.3 0 0 0-13.19-13.39c-7.29 0-13.2 6-13.2 13.39 0 7.4 5.91 13.4 13.2 13.4zm0-21.43c4.37 0 7.91 3.6 7.91 8.03A7.98 7.98 0 0 1 36.81 50a7.98 7.98 0 0 1-7.92-8.04 7.97 7.97 0 0 1 7.92-8.03zm7.75 24.11c-3.3 0-4.13 1.17-7.75 1.17-3.63 0-4.46-1.17-7.76-1.17a10.46 10.46 0 0 0-7.63 3.13 10.83 10.83 0 0 0-3.09 7.75v3.85c0 .67.66 1.34 1.32 1.34h2.64c.66 0 1.32-.67 1.32-1.34v-3.85c0-1.17.33-2.35.99-3.35a5.52 5.52 0 0 1 4.45-2.18c2.15 0 3.47 1.17 7.76 1.17 4.28 0 5.6-1.17 7.75-1.17 1.81 0 3.63.84 4.45 2.18.66 1 .99 2.18.99 3.35v3.85c0 .67.66 1.34 1.32 1.34h2.64c.82 0 1.32-.67 1.32-1.34v-3.85c0-2.35-.66-4.52-1.82-6.36a10.64 10.64 0 0 0-8.9-4.52z"/>

<path d=" M 86.94 12.5 L 13.06 12.5 C 7.28 12.5 2.5 17.35 2.5 23.21 L 2.5 76.79 C 2.5 82.65 7.28 87.5 13.06 87.5 L 86.94 87.5 C 92.72 87.5 97.5 82.65 97.5 76.79 L 97.5 23.21 C 97.5 17.35 92.72 12.5 86.94 12.5 Z  M 92.22 76.79 C 92.22 79.8 89.91 82.14 86.94 82.14 L 13.06 82.14 C 10.09 82.14 7.78 79.8 7.78 76.79 L 7.78 23.21 C 7.78 20.2 10.09 17.86 13.06 17.86 L 86.94 17.86 C 89.91 17.86 92.22 20.2 92.22 23.21 L 92.22 76.79 Z  M 80.35 55.36 L 61.88 55.36 C 61.22 55.36 60.56 56.03 60.56 56.7 L 60.56 59.38 C 60.56 60.04 61.22 60.71 61.88 60.71 L 80.35 60.71 C 81.01 60.71 81.67 60.04 81.67 59.38 L 81.67 56.7 C 81.67 56.03 81.01 55.36 80.35 55.36 Z  M 80.35 44.64 L 61.88 44.64 C 61.22 44.64 60.56 45.31 60.56 45.98 L 60.56 48.66 C 60.56 49.33 61.22 50 61.88 50 L 80.35 50 C 81.01 50 81.67 49.33 81.67 48.66 L 81.67 45.98 C 81.67 45.31 81.01 44.64 80.35 44.64 Z  M 80.35 33.93 L 61.88 33.93 C 61.22 33.93 60.56 34.6 60.56 35.27 L 60.56 37.95 C 60.56 38.62 61.22 39.29 61.88 39.29 L 80.35 39.29 C 81.01 39.29 81.67 38.62 81.67 37.95 L 81.67 35.27 C 81.67 34.6 81.01 33.93 80.35 33.93 Z  M 36.81 55.36 C 44.09 55.36 50 49.36 50 41.96 C 50 34.57 44.09 28.57 36.81 28.57 C 29.52 28.57 23.61 34.57 23.61 41.96 C 23.61 49.36 29.52 55.36 36.81 55.36 L 36.81 55.36 Z  M 36.81 33.93 C 41.18 33.93 44.72 37.53 44.72 41.96 C 44.72 46.4 41.18 50 36.81 50 C 32.43 50 28.89 46.4 28.89 41.96 C 28.89 37.53 32.43 33.93 36.81 33.93 Z  M 44.56 58.04 C 41.26 58.04 40.43 59.21 36.81 59.21 C 33.18 59.21 32.35 58.04 29.05 58.04 C 26.2 57.99 23.44 59.12 21.42 61.17 C 19.4 63.22 18.29 66.02 18.33 68.92 L 18.33 72.77 C 18.33 73.44 18.99 74.11 19.65 74.11 L 22.29 74.11 C 22.95 74.11 23.61 73.44 23.61 72.77 L 23.61 68.92 C 23.61 67.75 23.94 66.57 24.6 65.57 C 25.59 64.23 27.24 63.39 29.05 63.39 C 31.2 63.39 32.52 64.56 36.81 64.56 C 41.09 64.56 42.41 63.39 44.56 63.39 C 46.37 63.39 48.19 64.23 49.01 65.57 C 49.67 66.57 50 67.75 50 68.92 L 50 72.77 C 50 73.44 50.66 74.11 51.32 74.11 L 53.96 74.11 C 54.78 74.11 55.28 73.44 55.28 72.77 L 55.28 68.92 C 55.28 66.57 54.62 64.4 53.46 62.56 C 51.41 59.66 48.08 57.97 44.56 58.04 Z "/>
